public/library/zengo-wallet-text-dark.svg

<svg xmlns="http://www.w3.org/2000/svg" width="138" height="40" viewBox="0 0 138 40" fill="none"><path d="M31.8511 23.6003H19.3988L27.1874 13.468C27.7637 12.7165 27.229 11.6293 26.2815 11.6293H11.0636L7.74561 15.9454L18.9651 15.9395C19.8688 15.9395 19.4434 16.6702 19.1553 17.0445L13.0034 25.047C12.1122 26.2055 12.938 27.8838 14.3995 27.8838H28.5925L31.8511 23.6033V23.6003Z" fill="#FFFFFF"></path><path d="M31.4057 7.29533C32.8671 7.29533 34.1147 8.07954 34.7475 9.39546C35.3802 10.7114 35.0356 12.1758 34.1237 13.3195L29.16 19.7536H34.7801L37.6645 15.9989C39.6012 13.5749 39.9696 10.3282 38.621 7.53297C37.2783 4.73774 34.5128 3 31.4086 3H17.7919L14.4917 7.29533H31.4116H31.4057Z" fill="#FFFFFF"></path><path d="M8.01604 32.5475C6.55456 32.5475 5.30696 31.7632 4.67424 30.4473C4.04153 29.1314 4.38611 27.6669 5.29804 26.5233L10.5202 19.7565H4.9L1.76019 23.8469C-0.176565 26.2708 -0.544906 29.5176 0.803696 32.3128C2.14636 35.108 4.91188 36.8458 8.01604 36.8458H21.6268L24.927 32.5504H8.01604V32.5475Z" fill="#FFFFFF"></path><path d="M48.8955 30.8673V28.0853L58.3071 16.9571L59.1062 18.4961H49.1027V14.9445H62.8353V17.7266L53.4237 28.8548L52.595 27.3158H63.1017V30.8673H48.8955Z" fill="#FFFFFF"></path><path d="M73.1734 31.1041C71.3581 31.1041 69.7599 30.7489 68.3788 30.0386C67.0174 29.3283 65.9618 28.3615 65.212 27.1382C64.4622 25.8951 64.0873 24.4844 64.0873 22.9059C64.0873 21.3077 64.4523 19.897 65.1824 18.6737C65.9322 17.4306 66.9483 16.4638 68.2308 15.7732C69.5133 15.0629 70.9635 14.7078 72.5814 14.7078C74.1402 14.7078 75.5411 15.0432 76.7841 15.714C78.0469 16.3652 79.0433 17.3122 79.7733 18.5553C80.5034 19.7786 80.8684 21.2485 80.8684 22.9651C80.8684 23.1427 80.8585 23.3499 80.8388 23.5866C80.8191 23.8037 80.7993 24.0108 80.7796 24.2082H67.846V21.5149H78.3527L76.5769 22.314C76.5769 21.4853 76.4092 20.7651 76.0738 20.1535C75.7384 19.5418 75.2747 19.0683 74.6828 18.7329C74.0909 18.3777 73.4003 18.2001 72.611 18.2001C71.8218 18.2001 71.1214 18.3777 70.5097 18.7329C69.9178 19.0683 69.4541 19.5517 69.1187 20.1831C68.7833 20.7947 68.6155 21.5248 68.6155 22.3732V23.0835C68.6155 23.9517 68.803 24.7212 69.1779 25.392C69.5725 26.0431 70.1151 26.5463 70.8057 26.9014C71.516 27.2368 72.3447 27.4046 73.2918 27.4046C74.1402 27.4046 74.8801 27.2763 75.5115 27.0198C76.1626 26.7633 76.7545 26.3785 77.2872 25.8655L79.7437 28.5292C79.0137 29.3579 78.0962 29.9992 76.9913 30.453C75.8864 30.887 74.6137 31.1041 73.1734 31.1041Z" fill="#FFFFFF"></path><path d="M92.4364 14.7078C93.6991 14.7078 94.8238 14.9643 95.8103 15.4773C96.8166 15.9705 97.6058 16.74 98.178 17.7858C98.7502 18.8118 99.0363 20.1337 99.0363 21.7517V30.8673H94.4193V22.462C94.4193 21.1795 94.1332 20.2324 93.561 19.6207C93.0086 19.0091 92.2193 18.7033 91.1933 18.7033C90.4633 18.7033 89.8023 18.8611 89.2104 19.1768C88.6382 19.4728 88.1844 19.9364 87.8489 20.5678C87.5333 21.1992 87.3754 22.0082 87.3754 22.9947V30.8673H82.7584V14.9445H87.1682V19.3544L86.3395 18.0225C86.9117 16.9571 87.7306 16.1382 88.796 15.5661C89.8615 14.9939 91.0749 14.7078 92.4364 14.7078Z" fill="#FFFFFF"></path><path d="M109.641 36.8458C108.141 36.8458 106.691 36.6583 105.29 36.2834C103.909 35.9283 102.755 35.3857 101.828 34.6556L103.663 31.3409C104.333 31.8933 105.182 32.3274 106.208 32.6431C107.254 32.9785 108.28 33.1462 109.286 33.1462C110.924 33.1462 112.107 32.7812 112.837 32.0512C113.587 31.3211 113.962 30.2359 113.962 28.7956V26.3983L114.258 22.4028L114.199 18.3777V14.9445H118.579V28.2037C118.579 31.1633 117.81 33.3435 116.271 34.7444C114.732 36.1453 112.522 36.8458 109.641 36.8458ZM108.931 30.0978C107.451 30.0978 106.109 29.7821 104.906 29.1507C103.722 28.4996 102.765 27.6019 102.035 26.4575C101.324 25.2934 100.969 23.9418 100.969 22.4028C100.969 20.8441 101.324 19.4925 102.035 18.3481C102.765 17.184 103.722 16.2862 104.906 15.6548C106.109 15.0235 107.451 14.7078 108.931 14.7078C110.272 14.7078 111.456 14.984 112.482 15.5365C113.508 16.0692 114.307 16.9078 114.88 18.0521C115.452 19.1768 115.738 20.627 115.738 22.4028C115.738 24.1588 115.452 25.609 114.88 26.7534C114.307 27.8781 113.508 28.7167 112.482 29.2691C111.456 29.8216 110.272 30.0978 108.931 30.0978ZM109.848 26.3095C110.657 26.3095 111.377 26.1516 112.009 25.836C112.64 25.5005 113.133 25.0369 113.489 24.4449C113.844 23.853 114.021 23.1723 114.021 22.4028C114.021 21.6136 113.844 20.9328 113.489 20.3606C113.133 19.7687 112.64 19.3149 112.009 18.9992C111.377 18.6638 110.657 18.4961 109.848 18.4961C109.039 18.4961 108.319 18.6638 107.688 18.9992C107.056 19.3149 106.553 19.7687 106.178 20.3606C105.823 20.9328 105.646 21.6136 105.646 22.4028C105.646 23.1723 105.823 23.853 106.178 24.4449C106.553 25.0369 107.056 25.5005 107.688 25.836C108.319 26.1516 109.039 26.3095 109.848 26.3095Z" fill="#FFFFFF"></path><path d="M129.269 31.1041C127.572 31.1041 126.063 30.7489 124.741 30.0386C123.439 29.3283 122.403 28.3615 121.633 27.1382C120.884 25.8951 120.509 24.4844 120.509 22.9059C120.509 21.3077 120.884 19.897 121.633 18.6737C122.403 17.4306 123.439 16.4638 124.741 15.7732C126.063 15.0629 127.572 14.7078 129.269 14.7078C130.946 14.7078 132.446 15.0629 133.768 15.7732C135.09 16.4638 136.126 17.4208 136.875 18.6441C137.625 19.8674 138 21.288 138 22.9059C138 24.4844 137.625 25.8951 136.875 27.1382C136.126 28.3615 135.09 29.3283 133.768 30.0386C132.446 30.7489 130.946 31.1041 129.269 31.1041ZM129.269 27.3158C130.039 27.3158 130.729 27.1382 131.341 26.783C131.953 26.4279 132.436 25.9247 132.791 25.2736C133.146 24.6028 133.324 23.8135 133.324 22.9059C133.324 21.9786 133.146 21.1893 132.791 20.5382C132.436 19.8871 131.953 19.384 131.341 19.0288C130.729 18.6737 130.039 18.4961 129.269 18.4961C128.5 18.4961 127.809 18.6737 127.197 19.0288C126.586 19.384 126.092 19.8871 125.718 20.5382C125.362 21.1893 125.185 21.9786 125.185 22.9059C125.185 23.8135 125.362 24.6028 125.718 25.2736C126.092 25.9247 126.586 26.4279 127.197 26.783C127.809 27.1382 128.5 27.3158 129.269 27.3158Z" fill="#FFFFFF"></path></svg>

<svg xmlns="http://www.w3.org/2000/svg" width="138" height="40" fill="none" viewBox="0 0 138 40"><path fill="#fff" d="M31.851 23.6H19.4l7.788-10.132c.577-.751.042-1.839-.905-1.839H11.064l-3.318 4.316 11.22-.005c.903 0 .477.73.19 1.104l-6.153 8.003c-.89 1.159-.065 2.837 1.396 2.837h14.194l3.258-4.28z"/><path fill="#fff" d="M31.406 7.295c1.461 0 2.709.785 3.342 2.1.632 1.316.288 2.78-.624 3.925l-4.964 6.434h5.62l2.884-3.755a7.94 7.94 0 0 0 .957-8.466A7.94 7.94 0 0 0 31.409 3H17.792l-3.3 4.295h16.92zM8.016 32.548c-1.461 0-2.709-.785-3.342-2.1-.632-1.317-.288-2.781.624-3.925l5.222-6.767H4.9l-3.14 4.09a7.94 7.94 0 0 0-.956 8.467 7.94 7.94 0 0 0 7.212 4.533h13.61l3.301-4.296H8.016zM48.896 30.867v-2.782l9.411-11.128.8 1.54H49.102v-3.552h13.732v2.782l-9.411 11.128-.829-1.54h10.507v3.552zM73.173 31.104q-2.723 0-4.794-1.065-2.042-1.066-3.167-2.9-1.125-1.866-1.125-4.233 0-2.397 1.095-4.232a7.83 7.83 0 0 1 3.049-2.9q1.924-1.066 4.35-1.066 2.34 0 4.203 1.006a7.27 7.27 0 0 1 2.99 2.841q1.094 1.836 1.094 4.41 0 .267-.03.622-.029.325-.058.621H67.846v-2.693h10.507l-1.776.799q0-1.243-.503-2.16a3.57 3.57 0 0 0-1.391-1.421q-.888-.533-2.072-.533t-2.101.533a3.52 3.52 0 0 0-1.391 1.45q-.504.918-.504 2.19v.71q0 1.303.563 2.309a4 4 0 0 0 1.628 1.51q1.065.503 2.486.503 1.272 0 2.22-.385a5.4 5.4 0 0 0 1.775-1.154l2.457 2.663q-1.095 1.243-2.753 1.924-1.657.651-3.818.651M92.436 14.708q1.895 0 3.374.77 1.51.739 2.368 2.308.858 1.539.858 3.966v9.115H94.42v-8.405q0-1.924-.858-2.841-.829-.918-2.368-.918-1.094 0-1.983.474-.858.444-1.361 1.39-.474.948-.474 2.428v7.872h-4.617V14.944h4.41v4.41l-.829-1.331a5.9 5.9 0 0 1 2.457-2.457q1.599-.858 3.64-.858M109.641 36.846q-2.25 0-4.351-.563-2.072-.532-3.462-1.627l1.835-3.315q1.005.828 2.545 1.302 1.569.503 3.078.503 2.457 0 3.551-1.095 1.125-1.095 1.125-3.255v-2.398l.296-3.995-.059-4.025v-3.434h4.38v13.26q0 4.44-2.308 6.54-2.308 2.102-6.63 2.102m-.71-6.748q-2.22 0-4.025-.947a7.8 7.8 0 0 1-2.871-2.693q-1.066-1.747-1.066-4.055 0-2.338 1.066-4.055a7.5 7.5 0 0 1 2.871-2.693q1.805-.947 4.025-.947 2.012 0 3.551.829 1.539.798 2.398 2.515.858 1.688.858 4.35 0 2.635-.858 4.351-.86 1.688-2.398 2.516-1.54.83-3.551.829m.917-3.788q1.213 0 2.161-.474a3.74 3.74 0 0 0 1.48-1.391q.532-.888.532-2.042 0-1.184-.532-2.042a3.53 3.53 0 0 0-1.48-1.362q-.948-.503-2.161-.503t-2.16.503a3.7 3.7 0 0 0-1.51 1.362q-.532.858-.532 2.042 0 1.154.532 2.042a3.94 3.94 0 0 0 1.51 1.391q.947.474 2.16.474M129.269 31.104q-2.545 0-4.528-1.065a8.3 8.3 0 0 1-3.108-2.9q-1.124-1.866-1.124-4.233 0-2.397 1.124-4.232a8 8 0 0 1 3.108-2.9q1.983-1.066 4.528-1.066 2.516 0 4.499 1.065 1.983 1.036 3.107 2.871T138 22.906q0 2.368-1.125 4.232-1.124 1.835-3.107 2.9t-4.499 1.066m0-3.788q1.155 0 2.072-.533a3.8 3.8 0 0 0 1.45-1.51q.533-1.006.533-2.367 0-1.391-.533-2.368a3.8 3.8 0 0 0-1.45-1.51q-.917-.532-2.072-.532-1.154 0-2.072.533a4 4 0 0 0-1.479 1.51q-.534.976-.533 2.367 0 1.362.533 2.368a4 4 0 0 0 1.479 1.509q.918.533 2.072.533"/></svg>
